packages/foundations/assets/icons/functional/images/communication/paper_plane_32.svg

<svg width="32" height="32" viewBox="0 0 32 32" fill="none" xmlns="http://www.w3.org/2000/svg">
<g clip-path="url(#clip0_185_460)">
<path fill-rule="evenodd" clip-rule="evenodd" d="M28.7172 3.28924C28.9753 3.57952 29.0722 3.99884 28.9431 4.38596L19.8436 27.7096C19.5532 28.4838 18.8111 29 17.9721 29C17.1009 29 16.3588 28.4838 16.0683 27.6774L12.8739 19.1286L4.32292 15.935C3.51628 15.6123 3 14.8703 3 14.0316C3 13.1928 3.48406 12.4509 4.2907 12.1282L27.6202 3.06337C28.0074 2.93433 28.4268 2.99885 28.7172 3.28924ZM25.2969 8.12806L14.8422 18.5801L17.9721 26.9676L25.2969 8.12806ZM23.8448 6.70864L5.03291 14.0316L13.3901 17.1607L23.8448 6.70864Z" fill="#1A1C1F"/>
</g>
<defs>
<clipPath id="clip0_185_460">
<rect width="32" height="32" fill="white"/>
</clipPath>
</defs>
</svg>

<svg xmlns="http://www.w3.org/2000/svg" width="32" height="32" fill="none"><g clip-path="url(#a)"><path fill="#1A1C1F" fill-rule="evenodd" d="M28.717 3.29c.258.29.355.709.226 1.096l-9.1 23.324a1.99 1.99 0 0 1-1.87 1.29 1.99 1.99 0 0 1-1.905-1.323l-3.194-8.548-8.551-3.194C3.516 15.612 3 14.87 3 14.032c0-.84.484-1.581 1.29-1.904l23.33-9.065c.387-.129.807-.064 1.097.226m-3.42 4.838L14.842 18.58l3.13 8.388zm-1.452-1.42L5.033 14.033l8.357 3.129z" clip-rule="evenodd"/></g><defs><clipPath id="a"><path fill="#fff" d="M0 0h32v32H0z"/></clipPath></defs></svg>
